assets/IconPhone.svg

<?xml version="1.0" encoding="utf-8"?>
<!-- Generator: Adobe Illustrator 13.0.0, SVG Export Plug-In . SVG Version: 6.00 Build 14948)  -->
<!DOCTYPE svg PUBLIC "-//W3C//DTD SVG 1.1//EN" "http://www.w3.org/Graphics/SVG/1.1/DTD/svg11.dtd">
<svg version="1.1"
	 id="svg2" inkscape:version="0.48.4 r9939" sodipodi:docname="phone-alt.svg" xmlns:dc="http://purl.org/dc/elements/1.1/" xmlns:cc="http://creativecommons.org/ns#" xmlns:rdf="http://www.w3.org/1999/02/22-rdf-syntax-ns#" xmlns:svg="http://www.w3.org/2000/svg" xmlns:sodipodi="http://sodipodi.sourceforge.net/DTD/sodipodi-0.dtd" xmlns:inkscape="http://www.inkscape.org/namespaces/inkscape"
	 xmlns="http://www.w3.org/2000/svg" xmlns:xlink="http://www.w3.org/1999/xlink" x="0px" y="0px" width="1200px" height="1200px"
	 viewBox="0 0 1200 1200" enable-background="new 0 0 1200 1200" xml:space="preserve">
<path id="path16180" inkscape:connector-curvature="0" d="M600,0C268.629,0,0,268.629,0,600s268.629,600,600,600
	s600-268.629,600-600S931.371,0,600,0z M384.375,238.33c12.362-0.729,23.536,6.66,32.007,19.775l82.031,155.566
	c8.637,18.433,3.73,38.172-9.155,51.343l-37.573,37.573c-2.32,3.178-3.845,6.757-3.882,10.693
	c14.409,55.776,58.117,107.223,96.68,142.603s80.009,83.281,133.813,94.629c6.65,1.855,14.797,2.519,19.556-1.904l43.652-44.458
	c15.068-11.421,36.866-16.956,52.954-7.617h0.732l148.022,87.378c21.727,13.619,23.979,39.944,8.423,55.957L849.683,941.016
	c-15.056,15.44-35.058,20.631-54.492,20.654c-85.948-2.575-167.158-44.759-233.862-88.11
	c-109.489-79.653-209.922-178.446-272.974-297.803c-24.182-50.05-52.589-113.91-49.878-169.775
	c0.242-21.015,5.928-41.605,20.728-55.151l101.953-101.953C369.1,242.121,376.957,238.768,384.375,238.33z"/>
</svg>

<svg width="1200" height="1200" viewBox="0 0 1200 1200" fill="none" xmlns="http://www.w3.org/2000/svg">
<rect x="224" y="194" width="752" height="752" fill="white"/>
<path d="M600 0C268.629 0 0 268.629 0 600C0 931.371 268.629 1200 600 1200C931.371 1200 1200 931.371 1200 600C1200 268.629 931.371 0 600 0ZM384.375 238.33C396.737 237.601 407.911 244.99 416.382 258.105L498.413 413.671C507.05 432.104 502.143 451.843 489.258 465.014L451.685 502.587C449.365 505.765 447.84 509.344 447.803 513.28C462.212 569.056 505.92 620.503 544.483 655.883C583.046 691.263 624.492 739.164 678.296 750.512C684.946 752.367 693.093 753.031 697.852 748.608L741.504 704.15C756.572 692.729 778.37 687.194 794.458 696.533H795.19L943.212 783.911C964.939 797.53 967.191 823.855 951.635 839.868L849.683 941.016C834.627 956.456 814.625 961.647 795.191 961.67C709.243 959.095 628.033 916.911 561.329 873.56C451.84 793.907 351.407 695.114 288.355 575.757C264.173 525.707 235.766 461.847 238.477 405.982C238.719 384.967 244.405 364.377 259.205 350.831L361.158 248.878C369.1 242.121 376.957 238.768 384.375 238.33Z" fill="black"/>
</svg>
